picto/tracks-81-fr-small-framed.svg

<svg class="color-immutable" width="30" height="30" viewBox="0 0 30 30" fill="none" xmlns="http://www.w3.org/2000/svg"><path d="M30 0H0V30H30V0Z" fill="#2D327D"/><path d="M25.5 3C26.325 3 27 3.675 27 4.5V25.5C27 26.325 26.325 27 25.5 27H4.5C3.675 27 3 26.325 3 25.5V4.5C3 3.675 3.675 3 4.5 3H25.5ZM25.5 2.625H4.5C3.46613 2.625 2.625 3.46613 2.625 4.5V25.5C2.625 26.5339 3.46613 27.375 4.5 27.375H25.5C26.5339 27.375 27.375 26.5339 27.375 25.5V4.5C27.375 3.46613 26.5339 2.625 25.5 2.625Z" fill="white"/><path d="M8.13095 17.963C7.60798 17.7836 7.2068 17.4889 6.92743 17.0786C6.6479 16.6685 6.50833 16.1711 6.50833 15.5867C6.50833 14.6126 6.90823 13.8359 7.70803 13.2564C8.41558 12.7438 9.25633 12.4874 10.2305 12.4874C11.338 12.4874 12.2428 12.7925 12.9452 13.4025C13.6117 13.9768 13.945 14.6868 13.945 15.5328C13.945 16.1225 13.8039 16.6275 13.522 17.0478C13.24 17.4683 12.8401 17.7733 12.3223 17.9629C12.7272 18.0809 13.0579 18.2321 13.3144 18.4167C14.0269 18.9346 14.3833 19.6908 14.3833 20.6854C14.3833 21.8287 13.945 22.7387 13.0683 23.4154C12.33 23.9845 11.3815 24.2691 10.2229 24.2691C8.96668 24.2691 7.96693 23.9564 7.2236 23.3308C6.44938 22.6798 6.06238 21.8262 6.06238 20.7699C6.06238 19.7805 6.4058 19.014 7.09288 18.4705C7.4054 18.2297 7.75153 18.0605 8.13095 17.963ZM10.1843 18.8089C9.63058 18.8089 9.17803 18.9794 8.82695 19.3204C8.47573 19.6614 8.30015 20.0984 8.30015 20.6315C8.30015 21.1802 8.47828 21.6262 8.8346 21.9697C9.19085 22.3132 9.6536 22.4849 10.2227 22.4849C10.8687 22.4849 11.3532 22.2953 11.6762 21.9158C11.9889 21.5518 12.1453 21.1314 12.1453 20.6546C12.1453 20.1112 11.9658 19.6652 11.607 19.3165C11.2635 18.9782 10.7893 18.8089 10.1843 18.8089ZM10.1997 14.2331C9.70753 14.2331 9.3101 14.3704 9.00763 14.6446C8.70508 14.9189 8.55388 15.2791 8.55388 15.7251C8.55388 16.1918 8.70635 16.5647 9.01145 16.8441C9.3164 17.1236 9.72538 17.2632 10.2381 17.2632C10.7507 17.2632 11.1558 17.1248 11.4532 16.8479C11.7505 16.5711 11.8992 16.1942 11.8992 15.7174C11.8992 15.2509 11.7492 14.8868 11.4493 14.6254C11.1493 14.3639 10.7329 14.2331 10.1997 14.2331Z" fill="white"/><path d="M21.5076 12.7566V24H19.2621V16.6402H18.4623H17.6625H16.8858H16.6166V15.0098C17.1651 14.9944 17.6124 14.938 17.9586 14.8406C18.3046 14.7433 18.6212 14.5843 18.9084 14.3638C19.3236 14.046 19.603 13.5102 19.7466 12.7565H21.5076V12.7566Z" fill="white"/><path d="M8.03591 6L7.28839 8.24865H6.73009L5.99329 6H6.50704L7.01306 7.6842L7.52681 6H8.03591Z" fill="white"/><path d="M8.87413 6.5229C9.11818 6.5229 9.3176 6.6039 9.47248 6.7659C9.62525 6.92588 9.70168 7.13918 9.70168 7.40573C9.70168 7.68158 9.62015 7.90148 9.4571 8.06558C9.30433 8.21835 9.10543 8.29478 8.86033 8.29478C8.59888 8.29478 8.39068 8.20965 8.23588 8.03948C8.0882 7.87748 8.0144 7.66725 8.0144 7.40888C8.0144 7.15455 8.08618 6.94793 8.22973 6.789C8.38865 6.61163 8.60345 6.5229 8.87413 6.5229ZM8.8511 6.87053C8.7332 6.87053 8.63938 6.91823 8.56963 7.01355C8.4989 7.10993 8.4635 7.2417 8.4635 7.40888C8.4635 7.5822 8.49838 7.71495 8.56813 7.80728C8.6399 7.90058 8.73785 7.94723 8.8619 7.94723C8.97778 7.94723 9.06958 7.9047 9.13723 7.81958C9.2141 7.72523 9.25258 7.58835 9.25258 7.40888C9.25258 7.24073 9.21875 7.11 9.15103 7.0167C9.0803 6.91928 8.98033 6.87053 8.8511 6.87053Z" fill="white"/><path d="M10.4491 6V6.40147H10.0031V6H10.4491ZM10.4491 6.57217V8.24873H10.0031V6.57217H10.4491Z" fill="white"/><path d="M12.321 7.72575C12.2975 7.8201 12.2549 7.90875 12.1934 7.99185C12.0457 8.19382 11.8334 8.29485 11.5566 8.29485C11.3064 8.29485 11.1059 8.21587 10.9552 8.058C10.8814 7.98112 10.825 7.88827 10.786 7.7796C10.7439 7.66372 10.7229 7.54275 10.7229 7.4166C10.7229 7.17255 10.7932 6.9675 10.9337 6.80137C11.0906 6.61575 11.2936 6.52297 11.5427 6.52297C11.7437 6.52297 11.915 6.585 12.0565 6.70905C12.158 6.79822 12.2318 6.90825 12.278 7.03897C12.3241 7.1697 12.3472 7.33402 12.3472 7.53195H11.1767C11.1809 7.614 11.1937 7.68217 11.2152 7.73655C11.2757 7.88317 11.3906 7.95652 11.5598 7.95652C11.6428 7.95652 11.7105 7.9383 11.7628 7.90192C11.8151 7.86555 11.8581 7.80682 11.892 7.72582H12.321V7.72575ZM11.8919 7.23202C11.8838 7.15102 11.8653 7.08382 11.8366 7.0305C11.8079 6.97822 11.7671 6.93667 11.7143 6.90592C11.6615 6.87517 11.6039 6.8598 11.5413 6.8598C11.4419 6.8598 11.3598 6.8931 11.2952 6.95977C11.2307 7.02645 11.1922 7.1172 11.1799 7.23202H11.8919Z" fill="white"/></svg>

<svg class="color-immutable" width="30" height="30" viewBox="0 0 30 30" fill="none" xmlns="http://www.w3.org/2000/svg"><g clip-path="url(#a)"><path d="M30 0H0v30h30V0Z" fill="#2D327D"/><path d="M25.5 3c.825 0 1.5.675 1.5 1.5v21c0 .825-.675 1.5-1.5 1.5h-21c-.825 0-1.5-.675-1.5-1.5v-21C3 3.675 3.675 3 4.5 3h21Zm0-.375h-21A1.877 1.877 0 0 0 2.625 4.5v21c0 1.034.841 1.875 1.875 1.875h21a1.877 1.877 0 0 0 1.875-1.875v-21A1.877 1.877 0 0 0 25.5 2.625Z" fill="#fff"/><path d="M8.13 17.963c-.522-.18-.923-.474-1.203-.884-.28-.41-.419-.908-.419-1.492 0-.974.4-1.751 1.2-2.33.708-.513 1.548-.77 2.522-.77 1.108 0 2.013.306 2.715.915.667.575 1 1.285 1 2.13 0 .59-.141 1.096-.423 1.516-.282.42-.682.725-1.2.915.405.118.736.27.992.454.713.518 1.07 1.274 1.07 2.268 0 1.144-.439 2.054-1.316 2.73-.738.57-1.686.854-2.845.854-1.256 0-2.256-.313-3-.938-.774-.651-1.16-1.505-1.16-2.561 0-.99.343-1.756 1.03-2.3.312-.24.659-.41 1.038-.507Zm2.054.846c-.553 0-1.006.17-1.357.511-.351.341-.527.778-.527 1.311 0 .55.178.995.535 1.339.356.343.819.515 1.388.515.646 0 1.13-.19 1.453-.57.313-.363.47-.784.47-1.26 0-.544-.18-.99-.539-1.338-.343-.339-.818-.508-1.423-.508Zm.016-4.576c-.492 0-.89.137-1.192.412-.303.274-.454.634-.454 1.08 0 .467.152.84.457 1.12.305.279.714.418 1.227.418.513 0 .918-.138 1.215-.415.298-.277.446-.654.446-1.13 0-.467-.15-.831-.45-1.093-.3-.261-.716-.392-1.25-.392ZM21.508 12.757V24h-2.246v-7.36H16.616v-1.63c.55-.016.996-.072 1.343-.17.346-.097.662-.256.95-.476.415-.318.694-.854.838-1.607h1.76ZM8.036 6l-.748 2.249H6.73L5.993 6h.514l.506 1.684L7.527 6h.509ZM8.874 6.523c.244 0 .444.08.598.243.153.16.23.373.23.64 0 .276-.082.495-.245.66a.807.807 0 0 1-.597.229c-.261 0-.47-.085-.624-.256-.148-.162-.222-.372-.222-.63 0-.254.072-.461.216-.62.159-.177.373-.266.644-.266Zm-.023.348a.331.331 0 0 0-.281.143.656.656 0 0 0-.107.395c0 .173.035.306.105.398a.35.35 0 0 0 .294.14.333.333 0 0 0 .275-.127c.077-.095.116-.232.116-.411 0-.168-.034-.299-.102-.392a.349.349 0 0 0-.3-.146ZM10.45 6v.401h-.447V6h.446Zm0 .572V8.25h-.447V6.572h.446ZM12.321 7.726a.75.75 0 0 1-.128.266c-.147.202-.36.303-.636.303-.25 0-.451-.08-.602-.237a.773.773 0 0 1-.169-.278 1.055 1.055 0 0 1-.063-.363c0-.244.07-.45.21-.616a.76.76 0 0 1 .61-.278c.2 0 .372.062.514.186.101.09.175.2.221.33.046.13.07.295.07.493h-1.171c.004.082.017.15.038.205.06.146.176.22.345.22.083 0 .15-.019.203-.055a.39.39 0 0 0 .129-.176h.429Zm-.43-.494a.537.537 0 0 0-.054-.202.337.337 0 0 0-.295-.17c-.1 0-.182.033-.247.1a.447.447 0 0 0-.115.272h.712Z" fill="#fff"/></g><defs><clipPath id="a"><path fill="#fff" d="M0 0h30v30H0z"/></clipPath></defs></svg>
